src/images/svg/markets/aim-new.svg

<svg width="32" height="32" viewBox="0 0 32 32" fill="none" xmlns="http://www.w3.org/2000/svg">
<path fill-rule="evenodd" clip-rule="evenodd" d="M14 32C21.732 32 28 25.732 28 18C28 10.268 21.732 4 14 4C6.26801 4 0 10.268 0 18C0 25.732 6.26801 32 14 32ZM20 18C20 21.3137 17.3137 24 14 24C10.6863 24 8 21.3137 8 18C8 14.6863 10.6863 12 14 12C17.3137 12 20 14.6863 20 18ZM24 18C24 23.5228 19.5228 28 14 28C8.47715 28 4 23.5228 4 18C4 12.4772 8.47715 8 14 8C19.5228 8 24 12.4772 24 18Z" fill="#85ACB0"/>
<g style="mix-blend-mode:multiply">
<path fill-rule="evenodd" clip-rule="evenodd" d="M28.5274 2.55376L28.3626 0.923955C28.3388 0.688401 28.2344 0.468304 28.067 0.300893C27.6658 -0.100298 27.0153 -0.100298 26.6141 0.300893L23.3009 3.61416C23.0827 3.83232 22.9742 4.13698 23.0052 4.44394L23.2933 7.29255L12.3432 18.2426C11.9527 18.6332 11.9527 19.2663 12.3432 19.6569C12.7337 20.0474 13.3669 20.0474 13.7574 19.6569L24.7075 8.70673L27.556 8.99478C27.863 9.02582 28.1676 8.91726 28.3858 8.6991L31.699 5.38584C31.8664 5.21843 31.9709 4.99833 31.9947 4.76277C32.0518 4.19828 31.6405 3.6944 31.076 3.63732L29.4462 3.4725C28.9606 3.4234 28.5766 3.03938 28.5274 2.55376Z" fill="#FF444F"/>
</g>
</svg>

<svg width="32" height="32" fill="none" xmlns="http://www.w3.org/2000/svg"><path fill-rule="evenodd" clip-rule="evenodd" d="M14 32c7.732 0 14-6.268 14-14S21.732 4 14 4 0 10.268 0 18s6.268 14 14 14Zm6-14a6 6 0 1 1-12 0 6 6 0 0 1 12 0Zm4 0c0 5.523-4.477 10-10 10S4 23.523 4 18 8.477 8 14 8s10 4.477 10 10Z" fill="#85ACB0"/><path fill-rule="evenodd" clip-rule="evenodd" d="m28.527 2.554-.164-1.63a1.027 1.027 0 0 0-1.749-.623l-3.313 3.313a1.027 1.027 0 0 0-.296.83l.288 2.849-10.95 10.95a1 1 0 0 0 1.414 1.414l10.95-10.95 2.849.288c.307.03.612-.078.83-.296l3.313-3.313a1.027 1.027 0 0 0-.623-1.749l-1.63-.164a1.027 1.027 0 0 1-.919-.92Z" fill="#FF444F" style="mix-blend-mode:multiply"/></svg>
